X:1
T:Why so pale and wan, fond lover?
T:William Lawes (1602-1645)
T:Sir John Suckling (1609-1642)
T:Why so pale and wan, fond lover?
T:1637/38
C:William Lawes
C:(1602-1645)
Z:Sir John Suckling
Z:(1609-1642)
%%score 1 2
L:1/8
M:4/4
K:Dmin
V:1 treble nm="P1"
V:2 bass nm="P2"
V:1
 d3 d A2 A2 | B2 G2 A !fermata!A3 | cABG !fermata!A4 | F3 F G3 G | A2 A2 B !fermata!B3 | %5
w: (1)Why so pale and|wan, fond lo- ver?|Pri- thee, why so pale?|Will, when look- ing|well can't move her,|
w: (2)Why so dull and|mute, young sin- ner?|Pri- thee, why so mute?|Will, when speak- ing|well can't win her,|
 ccdd !fermata!e4 | fd e>d !fermata!d4 :| f2 e>d c4 | d2 c>B A2 c2 | G3 F F !fermata!F3 | %10
w: look- ing ill pre- vail?|Pri- thee, why so pale?|(3)Quit, quit for shame!|This will not move: this|can- not take her.|
w: say- ing no- thing, do't?|Pri- thee, why so mute?||||
 z AA=B cG G>A | !fermata!B4 A2 ^C>D | D !fermata!D3 z d e>^c | d2 d6 |] %14
w: If of her- self she will not|love, no- thing will|make her. The de- vil|take her!|
w: ||||
V:2
 D,8 | G,,4 !fermata!D,4 | F,2 G,2 !fermata!D,4 | F,4 B,4 | A,4 !fermata!G,4 | %5
 F,2 D,2 !fermata!A,4 | D,2 A,,2 !fermata!D,4 :| D,2 E,2 F,4 | B,,C,D,E, F,2 A,,B,, | %9
 C,4 !fermata!F,4 | F,4 E,4 | !fermata!D,4 F,G, A,2 | !fermata!D,4 A,,4 | D,8 |] %14

